dist/img/flower.svg

<svg width="28" height="38" viewBox="0 0 28 38" fill="none" xmlns="http://www.w3.org/2000/svg">
<path d="M8.52174 12.6666C8.52174 11.6191 7.70244 10.7666 6.69565 10.7666C5.68887 10.7666 4.86957 11.6191 4.86957 12.6666C4.86957 13.7141 5.68887 14.5666 6.69565 14.5666C7.70244 14.5666 8.52174 13.7141 8.52174 12.6666ZM6.08696 12.6666C6.08696 12.317 6.35965 12.0333 6.69565 12.0333C7.03165 12.0333 7.30435 12.317 7.30435 12.6666C7.30435 13.0162 7.03165 13.2999 6.69565 13.2999C6.35965 13.2999 6.08696 13.0162 6.08696 12.6666Z" fill="#C5528B"/>
<path d="M28 12.6667C28 11.6274 27.3956 10.7318 26.533 10.3423C26.838 9.48163 26.659 8.4759 25.9956 7.78557C25.3321 7.09523 24.3655 6.90777 23.5383 7.22633C23.1639 6.3289 22.3032 5.7 21.3043 5.7C21.0043 5.7 20.7188 5.7627 20.4528 5.86657C20.199 5.32127 19.7637 4.88427 19.2281 4.64233C19.533 3.78163 19.3541 2.7759 18.6906 2.08557C18.0271 1.39523 17.0611 1.20777 16.2339 1.52633C15.8596 0.6289 14.9989 0 14 0C13.0011 0 12.1404 0.6289 11.7661 1.52633C10.9377 1.20777 9.97165 1.39523 9.30878 2.08557C8.6453 2.7759 8.46635 3.78163 8.7713 4.64233C8.23565 4.88427 7.80044 5.32127 7.54661 5.86657C7.28122 5.7627 6.99574 5.7 6.69565 5.7C5.69678 5.7 4.83609 6.3289 4.46174 7.22633C3.6333 6.90777 2.6673 7.09523 2.00443 7.78557C1.34096 8.4759 1.162 9.48163 1.46696 10.3423C0.604435 10.7318 0 11.6274 0 12.6667C0 13.706 0.604435 14.6015 1.46696 14.991C1.162 15.8517 1.34096 16.8574 2.00443 17.5478C2.6673 18.2375 3.6333 18.4243 4.46174 18.107C4.75696 18.8151 5.35713 19.3502 6.08696 19.5472V20.9C6.08696 22.2515 6.398 23.5442 6.98722 24.7108C6.73887 24.757 6.49661 24.8457 6.28113 24.9977C5.77774 25.3511 5.47826 25.9394 5.47826 26.5709V30.4291C5.47826 31.0606 5.77774 31.6489 6.28052 32.0023C6.7827 32.3564 7.41878 32.4279 7.98243 32.1936L9.83226 31.4235C9.77626 31.7116 9.73913 32.0036 9.73913 32.3V37.3667C9.73913 37.7169 10.0112 38 10.3478 38H17.6522C17.9888 38 18.2609 37.7169 18.2609 37.3667V32.3C18.2609 32.0036 18.2237 31.7116 18.1677 31.4235L20.0176 32.1936C20.5812 32.4279 21.2173 32.3564 21.7195 32.0023C22.2223 31.6489 22.5217 31.0606 22.5217 30.4291V26.5709C22.5217 25.9394 22.2223 25.3511 21.7195 24.9977C21.504 24.8457 21.2617 24.757 21.0134 24.7108C21.602 23.5442 21.913 22.2515 21.913 20.9V19.5472C22.6429 19.3502 23.243 18.8151 23.5383 18.107C24.3655 18.4243 25.3321 18.2375 25.9956 17.5478C26.659 16.8574 26.838 15.8517 26.533 14.991C27.3956 14.6015 28 13.706 28 12.6667ZM9.73913 5.7C9.98504 5.7 10.2078 5.5461 10.3016 5.30923C10.3959 5.07237 10.3436 4.80003 10.1695 4.6189C9.73548 4.16733 9.73548 3.43267 10.1695 2.9811C10.6035 2.52953 11.3096 2.52953 11.7436 2.9811C11.9183 3.16287 12.18 3.21797 12.407 3.11853C12.6347 3.021 12.7826 2.7892 12.7826 2.53333C12.7826 1.83477 13.3286 1.26667 14 1.26667C14.6714 1.26667 15.2174 1.83477 15.2174 2.53333C15.2174 2.7892 15.3653 3.021 15.593 3.11853C15.8206 3.21733 16.0823 3.16287 16.2564 2.9811C16.6904 2.52953 17.3965 2.52953 17.8305 2.9811C18.2645 3.43267 18.2645 4.16733 17.8305 4.6189C17.6564 4.80003 17.6041 5.07237 17.6984 5.30923C17.7922 5.5461 18.015 5.7 18.2609 5.7C18.8172 5.7 19.2823 6.09267 19.4271 6.6234C19.2829 6.80517 19.1617 7.0072 19.0704 7.22633C18.242 6.90777 17.276 7.09523 16.6131 7.78557C15.9497 8.4759 15.7707 9.48163 16.0757 10.3423C15.8766 10.4323 15.6952 10.5583 15.5248 10.7008C15.1066 10.3487 14.5783 10.1333 14 10.1333C13.4217 10.1333 12.8934 10.3487 12.4752 10.7008C12.3048 10.5583 12.1234 10.4323 11.9243 10.3423C12.2293 9.48163 12.0503 8.4759 11.3869 7.78557C10.7234 7.09523 9.75678 6.90777 8.92956 7.22633C8.83826 7.0072 8.71713 6.80517 8.57287 6.6234C8.71774 6.09267 9.18278 5.7 9.73913 5.7ZM17.6984 15.4426C17.7922 15.6794 18.015 15.8333 18.2609 15.8333C18.9323 15.8333 19.4783 16.4014 19.4783 17.1C19.4783 17.7986 18.9323 18.3667 18.2609 18.3667C18.015 18.3667 17.7922 18.5206 17.6984 18.7574C17.6041 18.9943 17.6564 19.2666 17.8305 19.4478C18.2645 19.8993 18.2645 20.634 17.8305 21.0856C17.3965 21.5371 16.6904 21.5371 16.2564 21.0856C16.0823 20.9044 15.8212 20.85 15.593 20.9481C15.3653 21.0457 15.2174 21.2775 15.2174 21.5333C15.2174 22.2319 14.6714 22.8 14 22.8C13.3286 22.8 12.7826 22.2319 12.7826 21.5333C12.7826 21.2775 12.6347 21.0457 12.407 20.9481C12.3316 20.9152 12.2524 20.9 12.1739 20.9C12.0157 20.9 11.8598 20.9646 11.7436 21.0856C11.3096 21.5371 10.6035 21.5371 10.1695 21.0856C9.73548 20.634 9.73548 19.8993 10.1695 19.4478C10.3436 19.2666 10.3959 18.9943 10.3016 18.7574C10.2078 18.5206 9.98504 18.3667 9.73913 18.3667C9.06774 18.3667 8.52174 17.7986 8.52174 17.1C8.52174 16.4014 9.06774 15.8333 9.73913 15.8333C9.98504 15.8333 10.2078 15.6794 10.3016 15.4426C10.3959 15.2057 10.3436 14.9334 10.1695 14.7522C9.73548 14.3007 9.73548 13.566 10.1695 13.1144C10.6035 12.6629 11.3096 12.6629 11.7436 13.1144C11.9183 13.2962 12.18 13.3513 12.407 13.2519C12.6347 13.1543 12.7826 12.9225 12.7826 12.6667C12.7826 11.9681 13.3286 11.4 14 11.4C14.6714 11.4 15.2174 11.9681 15.2174 12.6667C15.2174 12.9225 15.3653 13.1543 15.593 13.2519C15.8206 13.3507 16.0823 13.2962 16.2564 13.1144C16.6904 12.6629 17.3965 12.6629 17.8305 13.1144C18.2645 13.566 18.2645 14.3007 17.8305 14.7522C17.6564 14.9334 17.6041 15.2057 17.6984 15.4426ZM19.7869 19.069C20.0553 19.2926 20.3639 19.4541 20.6957 19.5434V20.9C20.6957 22.4301 20.2276 23.8722 19.3474 25.0851L16.2424 26.3777C15.6855 25.7406 14.8911 25.3333 14 25.3333C13.1089 25.3333 12.3145 25.7406 11.757 26.3777L8.652 25.0851C7.77243 23.8722 7.30435 22.4301 7.30435 20.9V19.5434C7.63609 19.4535 7.94409 19.2926 8.21313 19.069C8.38296 19.2115 8.56922 19.3331 8.7713 19.4243C8.46635 20.285 8.6453 21.2908 9.30878 21.9811C9.97165 22.6708 10.9377 22.8583 11.7661 22.5403C12.1404 23.4378 13.0011 24.0667 14 24.0667C14.9989 24.0667 15.8596 23.4378 16.2339 22.5403C17.0611 22.8583 18.0277 22.6708 18.6912 21.9811C19.3547 21.2908 19.5337 20.285 19.2287 19.4243C19.4308 19.3331 19.6177 19.2115 19.7869 19.069ZM12.1739 28.5C12.1739 27.4525 12.9932 26.6 14 26.6C15.0068 26.6 15.8261 27.4525 15.8261 28.5C15.8261 29.5475 15.0068 30.4 14 30.4C12.9932 30.4 12.1739 29.5475 12.1739 28.5ZM5.47826 17.1C5.47826 16.8441 5.33035 16.6123 5.10269 16.5148C4.87504 16.416 4.6133 16.4711 4.43922 16.6522C4.00522 17.1038 3.29913 17.1038 2.86513 16.6522C2.43113 16.2007 2.43113 15.466 2.86513 15.0144C3.03922 14.8333 3.09156 14.561 2.99722 14.3241C2.90348 14.0872 2.6807 13.9333 2.43478 13.9333C1.76339 13.9333 1.21739 13.3652 1.21739 12.6667C1.21739 11.9681 1.76339 11.4 2.43478 11.4C2.6807 11.4 2.90348 11.2461 2.99722 11.0092C3.09156 10.7724 3.03922 10.5 2.86513 10.3189C2.43113 9.86733 2.43113 9.13267 2.86513 8.6811C3.29913 8.22953 4.00522 8.22953 4.43922 8.6811C4.61391 8.86223 4.87565 8.91733 5.10269 8.81853C5.33035 8.721 5.47826 8.4892 5.47826 8.23333C5.47826 7.53477 6.02426 6.96667 6.69565 6.96667C7.36704 6.96667 7.91304 7.53477 7.91304 8.23333C7.91304 8.4892 8.06096 8.721 8.28861 8.81853C8.51626 8.91733 8.77739 8.86223 8.95209 8.6811C9.38609 8.22953 10.0922 8.22953 10.5262 8.6811C10.9602 9.13267 10.9602 9.86733 10.5262 10.3189C10.3521 10.5 10.2997 10.7724 10.3941 11.0092C10.4878 11.2461 10.7106 11.4 10.9565 11.4C11.2012 11.4 11.4362 11.4804 11.6358 11.6204C10.8378 11.3677 9.93756 11.564 9.30878 12.2189C8.6453 12.9092 8.46635 13.915 8.7713 14.7757C7.90878 15.1652 7.30435 16.0607 7.30435 17.1C7.30435 17.4376 7.37374 17.7568 7.48939 18.0513C7.26904 18.2501 6.98965 18.3667 6.69565 18.3667C6.02426 18.3667 5.47826 17.7986 5.47826 17.1ZM7.53078 31.0175C7.34026 31.0967 7.1333 31.0739 6.96287 30.9535C6.79304 30.8345 6.69565 30.6426 6.69565 30.4291V26.5709C6.69565 26.3574 6.79304 26.1655 6.96287 26.0465C7.13269 25.9268 7.33965 25.9033 7.53078 25.9825L11.1324 27.4816C11.0265 27.8033 10.9565 28.1422 10.9565 28.5C10.9565 28.8578 11.0265 29.1967 11.1324 29.5178L7.53078 31.0175ZM17.0435 32.3V36.7333H10.9565V32.3C10.9565 31.7756 11.0856 31.2613 11.3223 30.8034L11.757 30.6223C12.3145 31.2594 13.1089 31.6667 14 31.6667C14.8911 31.6667 15.6855 31.2594 16.243 30.6223L16.6777 30.8034C16.9144 31.2613 17.0435 31.7756 17.0435 32.3ZM21.3043 26.5709V30.4291C21.3043 30.6426 21.207 30.8345 21.0371 30.9535C20.8673 31.0732 20.6603 31.0967 20.4692 31.0175L16.8676 29.5184C16.9735 29.1967 17.0435 28.8578 17.0435 28.5C17.0435 28.1422 16.9735 27.8033 16.8676 27.4822L20.4692 25.9831C20.6597 25.904 20.8667 25.9268 21.0371 26.0471C21.207 26.1655 21.3043 26.3574 21.3043 26.5709ZM25.5652 13.9333C25.3193 13.9333 25.0965 14.0872 25.0028 14.3241C24.9084 14.561 24.9608 14.8333 25.1349 15.0144C25.5689 15.466 25.5689 16.2007 25.1349 16.6522C24.7009 17.1038 23.9948 17.1038 23.5608 16.6522C23.3873 16.4711 23.1256 16.416 22.8973 16.5148C22.6697 16.6123 22.5217 16.8441 22.5217 17.1C22.5217 17.7986 21.9757 18.3667 21.3043 18.3667C21.0103 18.3667 20.731 18.2501 20.5106 18.0513C20.6263 17.7568 20.6957 17.4376 20.6957 17.1C20.6957 16.0607 20.0912 15.1652 19.2287 14.7757C19.5337 13.915 19.3547 12.9092 18.6912 12.2189C18.0618 11.564 17.1616 11.3677 16.3642 11.6204C16.5638 11.4804 16.7988 11.4 17.0435 11.4C17.2894 11.4 17.5122 11.2461 17.6059 11.0092C17.7003 10.7724 17.6479 10.5 17.4738 10.3189C17.0398 9.86733 17.0398 9.13267 17.4738 8.6811C17.9078 8.22953 18.6139 8.22953 19.0479 8.6811C19.2226 8.86223 19.4837 8.91733 19.7114 8.81853C19.939 8.721 20.087 8.4892 20.087 8.23333C20.087 7.53477 20.633 6.96667 21.3043 6.96667C21.9757 6.96667 22.5217 7.53477 22.5217 8.23333C22.5217 8.4892 22.6697 8.721 22.8973 8.81853C23.125 8.91733 23.3867 8.86223 23.5608 8.6811C23.9948 8.22953 24.7009 8.22953 25.1349 8.6811C25.5689 9.13267 25.5689 9.86733 25.1349 10.3189C24.9608 10.5 24.9084 10.7724 25.0028 11.0092C25.0965 11.2461 25.3193 11.4 25.5652 11.4C26.2366 11.4 26.7826 11.9681 26.7826 12.6667C26.7826 13.3652 26.2366 13.9333 25.5652 13.9333Z" fill="#C5528B"/>
<path d="M21.3044 10.7666C20.2976 10.7666 19.4783 11.6191 19.4783 12.6666C19.4783 13.7141 20.2976 14.5666 21.3044 14.5666C22.3111 14.5666 23.1304 13.7141 23.1304 12.6666C23.1304 11.6191 22.3111 10.7666 21.3044 10.7666ZM21.3044 13.2999C20.9684 13.2999 20.6957 13.0162 20.6957 12.6666C20.6957 12.317 20.9684 12.0333 21.3044 12.0333C21.6404 12.0333 21.9131 12.317 21.9131 12.6666C21.9131 13.0162 21.6404 13.2999 21.3044 13.2999Z" fill="#C5528B"/>
<path d="M14 15.2C12.9932 15.2 12.1739 16.0524 12.1739 17.1C12.1739 18.1475 12.9932 19 14 19C15.0068 19 15.8261 18.1475 15.8261 17.1C15.8261 16.0524 15.0068 15.2 14 15.2ZM14 17.7333C13.664 17.7333 13.3913 17.4496 13.3913 17.1C13.3913 16.7504 13.664 16.4666 14 16.4666C14.336 16.4666 14.6087 16.7504 14.6087 17.1C14.6087 17.4496 14.336 17.7333 14 17.7333Z" fill="#C5528B"/>
<path d="M14 8.86665C15.0068 8.86665 15.8261 8.01418 15.8261 6.96665C15.8261 5.91912 15.0068 5.06665 14 5.06665C12.9932 5.06665 12.1739 5.91912 12.1739 6.96665C12.1739 8.01418 12.9932 8.86665 14 8.86665ZM14 6.33332C14.336 6.33332 14.6087 6.61705 14.6087 6.96665C14.6087 7.31625 14.336 7.59998 14 7.59998C13.664 7.59998 13.3913 7.31625 13.3913 6.96665C13.3913 6.61705 13.664 6.33332 14 6.33332Z" fill="#C5528B"/>
</svg>

<svg width="28" height="38" fill="none" xmlns="http://www.w3.org/2000/svg"><path d="M8.522 12.667c0-1.048-.82-1.9-1.826-1.9-1.007 0-1.826.852-1.826 1.9 0 1.047.819 1.9 1.826 1.9 1.006 0 1.826-.853 1.826-1.9zm-2.435 0c0-.35.273-.634.609-.634.336 0 .608.284.608.634a.62.62 0 01-.608.633.622.622 0 01-.609-.633z" fill="#C5528B"/><path d="M28 12.667c0-1.04-.604-1.935-1.467-2.325a2.5 2.5 0 00-.537-2.556 2.266 2.266 0 00-2.458-.56C23.164 6.33 22.303 5.7 21.304 5.7c-.3 0-.585.063-.851.167a2.493 2.493 0 00-1.225-1.225 2.5 2.5 0 00-.537-2.556 2.265 2.265 0 00-2.457-.56C15.86.63 14.999 0 14 0c-.999 0-1.86.629-2.234 1.526a2.265 2.265 0 00-2.457.56 2.5 2.5 0 00-.538 2.556c-.535.242-.97.68-1.224 1.225a2.328 2.328 0 00-.851-.167c-1 0-1.86.629-2.234 1.526a2.265 2.265 0 00-2.458.56 2.5 2.5 0 00-.537 2.556C.604 10.732 0 11.627 0 12.667c0 1.039.604 1.934 1.467 2.324a2.5 2.5 0 00.537 2.557 2.27 2.27 0 002.458.559 2.47 2.47 0 001.625 1.44V20.9c0 1.352.311 2.644.9 3.81-.248.047-.49.136-.706.288a1.917 1.917 0 00-.803 1.573v3.858c0 .632.3 1.22.803 1.573a1.764 1.764 0 001.701.192l1.85-.77a4.59 4.59 0 00-.093.876v5.067c0 .35.272.633.609.633h7.304a.62.62 0 00.609-.633V32.3a4.59 4.59 0 00-.093-.876l1.85.77c.563.234 1.2.162 1.701-.192.503-.353.803-.941.803-1.573v-3.858c0-.632-.3-1.22-.802-1.573a1.775 1.775 0 00-.707-.287 8.42 8.42 0 00.9-3.811v-1.353a2.47 2.47 0 001.625-1.44 2.27 2.27 0 002.458-.56 2.5 2.5 0 00.537-2.556c.863-.39 1.467-1.285 1.467-2.324zM9.74 5.7a.608.608 0 00.562-.39.652.652 0 00-.133-.691 1.193 1.193 0 010-1.638 1.084 1.084 0 011.575 0 .589.589 0 00.663.138.633.633 0 00.376-.586c0-.698.546-1.266 1.217-1.266s1.217.568 1.217 1.266c0 .256.148.488.376.586a.59.59 0 00.663-.138 1.084 1.084 0 011.575 0 1.193 1.193 0 010 1.638.652.652 0 00-.133.69.61.61 0 00.563.391c.556 0 1.021.393 1.166.923a2.546 2.546 0 00-.357.603 2.265 2.265 0 00-2.457.56 2.5 2.5 0 00-.537 2.556c-.2.09-.38.216-.551.359A2.359 2.359 0 0014 10.133a2.36 2.36 0 00-1.525.568 2.425 2.425 0 00-.55-.359 2.5 2.5 0 00-.538-2.556 2.266 2.266 0 00-2.457-.56 2.544 2.544 0 00-.357-.603c.145-.53.61-.923 1.166-.923zm7.958 9.743a.61.61 0 00.563.39c.671 0 1.217.568 1.217 1.267s-.546 1.267-1.217 1.267a.609.609 0 00-.563.39.652.652 0 00.133.69 1.193 1.193 0 010 1.639 1.084 1.084 0 01-1.575 0 .591.591 0 00-.663-.138.634.634 0 00-.376.585c0 .699-.546 1.267-1.217 1.267s-1.217-.568-1.217-1.267a.634.634 0 00-.376-.585.597.597 0 00-.663.137 1.084 1.084 0 01-1.575 0 1.193 1.193 0 010-1.637.652.652 0 00.133-.69.609.609 0 00-.563-.391c-.671 0-1.217-.568-1.217-1.267s.546-1.267 1.217-1.267a.609.609 0 00.563-.39.652.652 0 00-.133-.69 1.193 1.193 0 010-1.639 1.084 1.084 0 011.575 0 .589.589 0 00.663.138.634.634 0 00.376-.585c0-.699.546-1.267 1.217-1.267s1.217.568 1.217 1.267c0 .255.148.487.376.585a.59.59 0 00.663-.138 1.084 1.084 0 011.575 0 1.193 1.193 0 010 1.638.652.652 0 00-.133.69zm2.089 3.626c.268.224.577.385.909.474V20.9c0 1.53-.468 2.972-1.349 4.185l-3.105 1.293c-.557-.637-1.35-1.045-2.242-1.045-.891 0-1.685.408-2.243 1.045l-3.105-1.293A7.07 7.07 0 017.304 20.9v-1.357c.332-.09.64-.25.91-.474.169.143.355.264.557.355a2.5 2.5 0 00.538 2.557c.663.69 1.629.877 2.457.56.374.897 1.235 1.526 2.234 1.526.999 0 1.86-.63 2.234-1.527.827.318 1.794.13 2.457-.559a2.5 2.5 0 00.538-2.557c.202-.09.389-.212.558-.355zM12.174 28.5c0-1.047.82-1.9 1.826-1.9 1.007 0 1.826.852 1.826 1.9 0 1.047-.82 1.9-1.826 1.9-1.007 0-1.826-.852-1.826-1.9zM5.478 17.1a.633.633 0 00-.375-.585.59.59 0 00-.664.137 1.084 1.084 0 01-1.574 0 1.193 1.193 0 010-1.638.652.652 0 00.132-.69.608.608 0 00-.562-.39c-.672 0-1.218-.569-1.218-1.267 0-.699.546-1.267 1.218-1.267a.608.608 0 00.562-.39.652.652 0 00-.132-.691 1.193 1.193 0 010-1.638 1.084 1.084 0 011.574 0 .59.59 0 00.664.138.633.633 0 00.375-.586c0-.698.546-1.266 1.218-1.266.671 0 1.217.568 1.217 1.266 0 .256.148.488.376.586a.59.59 0 00.663-.138 1.084 1.084 0 011.574 0 1.193 1.193 0 010 1.638.652.652 0 00-.132.69.61.61 0 00.563.391c.244 0 .48.08.679.22a2.261 2.261 0 00-2.327.599 2.5 2.5 0 00-.538 2.557c-.862.39-1.467 1.285-1.467 2.324 0 .338.07.657.185.951-.22.2-.5.316-.793.316-.672 0-1.218-.568-1.218-1.267zm2.053 13.917a.58.58 0 01-.568-.064.63.63 0 01-.267-.524v-3.858a.63.63 0 01.267-.524.582.582 0 01.568-.064l3.601 1.499c-.105.321-.175.66-.175 1.018s.07.697.175 1.018l-3.601 1.5zm9.513 1.283v4.433h-6.088V32.3c0-.524.13-1.039.366-1.497l.435-.18c.558.636 1.352 1.044 2.243 1.044.891 0 1.685-.408 2.243-1.045l.435.181c.236.458.366.973.366 1.497zm4.26-5.73v3.86a.63.63 0 01-.267.523.582.582 0 01-.568.064l-3.601-1.499c.106-.321.176-.66.176-1.018s-.07-.697-.176-1.018l3.601-1.499a.58.58 0 01.568.064c.17.119.267.31.267.524zm4.261-12.637a.608.608 0 00-.562.391.652.652 0 00.132.69 1.193 1.193 0 010 1.638 1.084 1.084 0 01-1.574 0 .59.59 0 00-.664-.137.634.634 0 00-.375.585c0 .699-.546 1.267-1.218 1.267-.294 0-.573-.117-.793-.316.115-.294.185-.613.185-.951 0-1.04-.605-1.935-1.467-2.324a2.5 2.5 0 00-.538-2.557 2.262 2.262 0 00-2.327-.599c.2-.14.435-.22.68-.22a.608.608 0 00.562-.39.652.652 0 00-.132-.691 1.193 1.193 0 010-1.638 1.084 1.084 0 011.574 0 .59.59 0 00.663.138.634.634 0 00.376-.586c0-.698.546-1.266 1.217-1.266.672 0 1.218.568 1.218 1.266 0 .256.148.488.375.586a.59.59 0 00.664-.138 1.084 1.084 0 011.574 0 1.193 1.193 0 010 1.638.652.652 0 00-.132.69.607.607 0 00.562.391c.672 0 1.218.568 1.218 1.267 0 .698-.546 1.266-1.218 1.266z" fill="#C5528B"/><path d="M21.304 10.767c-1.006 0-1.826.852-1.826 1.9 0 1.047.82 1.9 1.826 1.9 1.007 0 1.826-.853 1.826-1.9 0-1.048-.819-1.9-1.826-1.9zm0 2.533a.622.622 0 01-.608-.633c0-.35.272-.634.608-.634.336 0 .61.284.61.634 0 .35-.274.633-.61.633zM14 15.2c-1.007 0-1.826.852-1.826 1.9 0 1.047.82 1.9 1.826 1.9 1.007 0 1.826-.852 1.826-1.9s-.82-1.9-1.826-1.9zm0 2.533a.622.622 0 01-.609-.633c0-.35.273-.633.609-.633.336 0 .609.283.609.633 0 .35-.273.633-.609.633zm0-8.866c1.007 0 1.826-.853 1.826-1.9 0-1.048-.82-1.9-1.826-1.9-1.007 0-1.826.852-1.826 1.9 0 1.047.82 1.9 1.826 1.9zm0-2.534c.336 0 .609.284.609.634 0 .35-.273.633-.609.633a.622.622 0 01-.609-.633c0-.35.273-.634.609-.634z" fill="#C5528B"/></svg>
